lib/logo_updates/nrk-logo-nrk-klassisk-with-bg.svg

<svg width="388" height="84" viewBox="0 0 388 84" fill="none" xmlns="http://www.w3.org/2000/svg">
<rect width="388" height="84" fill="#6B046A"/>
<path d="M20 63V21.0038H33.7802V63H20ZM52.5283 27.6877L60.4532 63H45.3721L35.9092 21.0038H44.3676C46.3072 20.9786 48.1892 21.6624 49.6607 22.9264C51.1347 24.1373 52.1473 25.8184 52.5283 27.6877ZM62.5233 63V21.0038H76.3035V63H62.5233ZM86.7116 36.9743C85.2267 36.9888 83.7656 36.6003 82.4839 35.8504C81.2193 35.1194 80.1688 34.0689 79.438 32.8041C78.6872 31.5222 78.2986 30.0607 78.3134 28.5751C78.2964 27.0986 78.6853 25.6458 79.438 24.3755C80.1766 23.1245 81.2259 22.0853 82.4839 21.3588C83.766 20.6098 85.2269 20.2213 86.7116 20.2348C88.1877 20.2189 89.6399 20.6078 90.9108 21.3588C92.1562 22.0917 93.1943 23.13 93.9271 24.3755C94.6789 25.6462 95.0677 27.0987 95.0517 28.5751C95.0655 30.0605 94.6769 31.5218 93.9271 32.8041C93.202 34.0633 92.1627 35.113 90.9108 35.8504C89.6398 36.6029 88.1866 36.9918 86.7097 36.9743H86.7116ZM97.1807 63V21.0038H110.962V63H97.1807ZM128.408 43.9538C128.447 43.9946 128.742 44.4776 129.295 45.403C129.848 46.3283 130.567 47.5114 131.454 48.952C132.341 50.392 133.277 51.9199 134.262 53.536C135.247 55.1521 136.174 56.6803 137.043 58.1202C137.908 59.5602 138.894 61.1867 140 63H124.859C123.912 61.4621 123.055 60.0721 122.286 58.83C121.517 57.5878 120.7 56.2471 119.833 54.8077C118.965 53.3698 118.107 51.9699 117.259 50.6081C116.41 49.2464 115.681 48.0536 115.071 47.0297C114.459 46.0051 114.035 45.3149 113.799 44.9594C113.214 44.0771 112.868 43.058 112.794 42.0019C112.853 40.9883 113.179 40.0084 113.74 39.1619C113.976 38.7676 114.41 38.0675 115.041 37.062C115.672 36.0564 116.411 34.8637 117.259 33.4835C118.106 32.1034 118.965 30.6936 119.833 29.2543C120.702 27.815 121.519 26.4643 122.286 25.2025C123.056 23.9419 123.914 22.5421 124.859 21.0029H140L128.289 40.1082C127.926 40.6755 127.722 41.3292 127.697 42.0019C127.736 42.7081 127.983 43.3871 128.406 43.9538H128.408Z" fill="white"/>
<path d="M187.848 21.0348H180.462L164.41 39.5292H162.204V21.0348H156V62.9867H162.204V44.0197H162.413L179.872 63.0459L188.322 62.9858L168.291 42.1871L187.848 21.0348Z" fill="#EFB4ED"/>
<path d="M202.354 58.6427C202.148 58.6652 201.941 58.6754 201.733 58.6732C201.289 58.6863 200.846 58.6054 200.434 58.4359C200.076 58.2766 199.769 58.0209 199.548 57.6973C199.292 57.3148 199.12 56.8815 199.046 56.4269C198.94 55.8227 198.89 55.2097 198.898 54.5962V18.3758L192.871 19.2622V57.2552C192.846 58.251 193.006 59.2428 193.344 60.18C193.627 60.9415 194.094 61.6214 194.703 62.1594C195.31 62.6793 196.027 63.0532 196.801 63.2525C197.659 63.4751 198.543 63.5844 199.43 63.5776C199.904 63.5776 200.356 63.5578 200.789 63.5175C201.222 63.4771 201.646 63.4189 202.059 63.3411C202.473 63.2633 202.818 63.1835 203.094 63.1048L203.684 58.4359C203.448 58.4766 203.212 58.516 202.975 58.5541C202.739 58.5922 202.532 58.6217 202.354 58.6427Z" fill="#EFB4ED"/>
<path d="M235.295 59.2643C234.863 59.3039 234.428 59.2385 234.027 59.0737C233.626 58.909 233.27 58.6496 232.991 58.3178C232.442 57.3715 232.215 56.2735 232.341 55.1872L232.459 43.0153C232.472 41.7389 232.313 40.4666 231.986 39.2327C231.699 38.1512 231.218 37.1307 230.568 36.2202C229.911 35.3295 229.076 34.5851 228.116 34.034C227.001 33.4002 225.795 32.9418 224.541 32.675C223.008 32.3437 221.442 32.1851 219.873 32.2022C218.629 32.2017 217.386 32.2806 216.152 32.4386C214.985 32.5852 213.83 32.812 212.694 33.1172C211.641 33.4034 210.606 33.749 209.592 34.1522L208.883 39.1746C209.868 38.8188 210.803 38.5233 211.69 38.2883C212.576 38.0532 213.433 37.8563 214.26 37.6974C215.07 37.5421 215.889 37.4335 216.712 37.3724C217.519 37.3133 218.317 37.2838 219.106 37.2838C220.311 37.2579 221.513 37.3971 222.68 37.6974C223.532 37.9104 224.315 38.3376 224.955 38.9383C225.525 39.5222 225.932 40.2449 226.136 41.0348C226.389 42.0092 226.508 43.0132 226.492 44.0197L226.485 45.5029L219.578 45.9696C217.216 46.0356 214.888 46.5571 212.724 47.5059C211.104 48.2145 209.705 49.3475 208.676 50.7852C207.802 52.0643 207.339 53.5791 207.347 55.1281C207.336 56.5812 207.691 58.0136 208.381 59.2928C209.103 60.6076 210.191 61.6853 211.512 62.3958C213.124 63.2343 214.926 63.6415 216.742 63.5776C218.443 63.617 220.137 63.336 221.735 62.7494C223.116 62.2085 224.38 61.406 225.457 60.3859C225.866 59.9934 226.254 59.58 226.619 59.1471C226.734 59.7591 226.95 60.3475 227.259 60.8881C227.786 61.7926 228.596 62.4987 229.564 62.8971C230.634 63.3266 231.779 63.5373 232.931 63.5166C233.286 63.5166 233.631 63.5077 233.965 63.487C234.294 63.468 234.621 63.4188 234.94 63.3402C235.256 63.2605 235.54 63.1916 235.797 63.1335C236.028 63.0809 236.255 63.0118 236.477 62.9267L237.127 58.9669C236.801 59.0793 236.464 59.1587 236.122 59.2042C235.848 59.2411 235.572 59.2612 235.295 59.2643ZM225.457 56.6053C224.816 57.1113 224.123 57.5468 223.389 57.9042C222.658 58.2604 221.883 58.519 221.084 58.6733C220.257 58.8327 219.417 58.9119 218.574 58.9096C217.611 58.9373 216.653 58.756 215.767 58.3779C215.046 58.0643 214.438 57.5384 214.024 56.8702C213.614 56.162 213.41 55.354 213.433 54.5363C213.376 53.5515 213.646 52.5756 214.201 51.7602C214.844 51.0092 215.716 50.4902 216.682 50.283C218.192 49.9272 219.741 49.7682 221.291 49.8102H226.465L226.439 55.6747C226.139 56.0126 225.811 56.3239 225.457 56.6053Z" fill="#EFB4ED"/>
<path d="M261.41 49.3966C260.806 48.755 260.109 48.2071 259.343 47.7708C258.549 47.3173 257.719 46.9318 256.861 46.6185C256.231 46.4216 255.61 46.2148 255 45.9981C254.389 45.7814 253.778 45.5845 253.168 45.4072C252.556 45.23 251.965 45.0428 251.395 44.8459C250.859 44.6638 250.337 44.4464 249.83 44.195C249.344 43.9368 248.88 43.6404 248.441 43.3087C248.036 43.0036 247.694 42.6218 247.436 42.1851C247.176 41.737 247.043 41.2262 247.051 40.7079C247.036 40.1384 247.18 39.576 247.467 39.0839C247.775 38.6001 248.203 38.2034 248.708 37.9317C249.326 37.592 249.994 37.3524 250.687 37.2217C251.554 37.0558 252.434 36.977 253.317 36.9863C253.749 36.9863 254.223 37.007 254.734 37.0455C255.245 37.0839 255.807 37.1537 256.419 37.2522C257.03 37.3507 257.638 37.4788 258.25 37.6353C258.863 37.7919 259.481 37.9711 260.112 38.167C260.695 38.3475 261.267 38.5646 261.823 38.817L262.239 34.0319C261.49 33.7168 260.751 33.4408 260.023 33.2038C259.295 32.9687 258.556 32.7714 257.807 32.6128C257.076 32.4579 256.336 32.3494 255.591 32.2879C254.861 32.2288 254.144 32.1993 253.434 32.1993C251.802 32.1828 250.174 32.3713 248.589 32.7606C247.233 33.0902 245.945 33.6498 244.778 34.4151C243.72 35.1141 242.856 36.0694 242.266 37.1921C241.65 38.4292 241.345 39.7987 241.38 41.1805C241.362 42.1759 241.522 43.1663 241.853 44.1053C242.134 44.8926 242.554 45.6232 243.094 46.2621C243.619 46.8647 244.226 47.3917 244.896 47.8279C245.594 48.2858 246.336 48.6718 247.112 48.98C247.544 49.1376 247.997 49.2948 248.471 49.4517C248.944 49.6103 249.406 49.758 249.86 49.8949C250.314 50.0318 250.754 50.1717 251.189 50.3086C251.625 50.4455 252.045 50.5852 252.459 50.7221C252.873 50.859 253.276 50.989 253.67 51.1072C254.199 51.2941 254.713 51.521 255.207 51.7858C255.641 52.0158 256.047 52.2935 256.419 52.6139C256.745 52.9002 257.007 53.2527 257.187 53.648C257.366 54.0572 257.457 54.5 257.452 54.9469C257.473 55.3839 257.396 55.8202 257.228 56.2239C257.059 56.6276 256.803 56.9887 256.477 57.2808C255.746 57.8924 254.872 58.3094 253.936 58.4931C252.84 58.7346 251.721 58.8532 250.599 58.8466C249.897 58.8421 249.196 58.7932 248.5 58.6999C247.733 58.6015 246.925 58.4636 246.078 58.2863C245.232 58.109 244.365 57.8923 243.478 57.6363C242.592 57.3803 241.695 57.0947 240.79 56.7795L241.025 61.8019C242.049 62.1571 242.985 62.4427 243.832 62.6587C244.68 62.8747 245.488 63.0622 246.256 63.221C246.995 63.3745 247.746 63.4733 248.5 63.5165C249.229 63.5572 249.967 63.5772 250.716 63.5765C252.364 63.585 254.009 63.4163 255.621 63.0733C257.04 62.7855 258.399 62.2559 259.639 61.5075C260.756 60.8253 261.681 59.87 262.327 58.7314C263.003 57.4808 263.339 56.0746 263.3 54.6535C263.325 53.617 263.155 52.5851 262.799 51.6115C262.481 50.7916 262.01 50.0398 261.41 49.3966Z" fill="#EFB4ED"/>
<path d="M289.122 49.3967C288.517 48.7553 287.819 48.2074 287.053 47.7708C286.26 47.317 285.43 46.9315 284.571 46.6185C283.941 46.4216 283.32 46.2148 282.71 45.9981C282.099 45.7815 281.488 45.5845 280.878 45.4073C280.267 45.23 279.676 45.0428 279.105 44.8459C278.569 44.6636 278.047 44.4463 277.54 44.195C277.054 43.9368 276.589 43.6404 276.151 43.3087C275.746 43.0036 275.405 42.6218 275.148 42.1851C274.886 41.7372 274.753 41.2262 274.762 40.7079C274.747 40.1385 274.89 39.5761 275.177 39.0839C275.485 38.5997 275.912 38.2028 276.418 37.9317C277.036 37.592 277.704 37.3525 278.397 37.2217C279.263 37.0559 280.144 36.9771 281.026 36.9863C281.459 36.9863 281.932 37.0071 282.445 37.0455C282.958 37.0839 283.517 37.1538 284.129 37.2522C284.74 37.3507 285.349 37.4788 285.959 37.6354C286.57 37.7919 287.19 37.9711 287.822 38.1671C288.406 38.3475 288.978 38.5646 289.534 38.8171L289.949 34.032C289.2 33.7168 288.461 33.4408 287.733 33.2038C287.005 32.9685 286.265 32.7712 285.517 32.6129C284.786 32.4579 284.046 32.3494 283.301 32.2879C282.571 32.2288 281.852 32.1993 281.145 32.1993C279.513 32.1826 277.885 32.3712 276.3 32.7606C274.944 33.0899 273.655 33.6496 272.488 34.4151C271.431 35.1142 270.567 36.0694 269.977 37.1921C269.36 38.4289 269.055 39.7986 269.091 41.1806C269.073 42.176 269.233 43.1665 269.565 44.1054C269.845 44.8932 270.265 45.6239 270.805 46.2621C271.331 46.8652 271.937 47.3921 272.608 47.8279C273.305 48.2859 274.048 48.6718 274.823 48.98C275.255 49.1376 275.708 49.2948 276.182 49.4517C276.655 49.6103 277.117 49.7581 277.571 49.8949C278.025 50.0318 278.466 50.1717 278.899 50.3086C279.333 50.4455 279.756 50.5853 280.17 50.7221C280.583 50.859 280.987 50.989 281.382 51.1072C281.91 51.2941 282.424 51.521 282.917 51.7858C283.351 52.0153 283.758 52.2931 284.13 52.6139C284.456 52.8998 284.718 53.2525 284.897 53.648C285.078 54.0568 285.169 54.4998 285.164 54.9469C285.185 55.384 285.108 55.8203 284.939 56.2241C284.771 56.6278 284.514 56.9889 284.188 57.2809C283.457 57.8925 282.582 58.3095 281.647 58.4931C280.551 58.7347 279.432 58.8533 278.31 58.8466C277.608 58.8421 276.907 58.7932 276.212 58.7C275.444 58.6015 274.636 58.4636 273.789 58.2863C272.942 58.1091 272.076 57.8924 271.189 57.6363C270.303 57.3803 269.407 57.0947 268.501 56.7796L268.738 61.8019C269.76 62.1571 270.696 62.4427 271.544 62.6587C272.392 62.8747 273.2 63.0622 273.967 63.2211C274.707 63.3746 275.457 63.4734 276.212 63.5166C276.94 63.5573 277.679 63.5772 278.428 63.5765C280.075 63.5852 281.719 63.4165 283.331 63.0733C284.75 62.7858 286.109 62.2561 287.349 61.5075C288.467 60.8256 289.392 59.8702 290.038 58.7315C290.715 57.481 291.051 56.0747 291.012 54.6535C291.037 53.6169 290.867 52.585 290.51 51.6115C290.193 50.7914 289.721 50.0396 289.122 49.3967Z" fill="#EFB4ED"/>
<path d="M303.332 19.8824C302.719 19.5077 302.013 19.3132 301.294 19.3211C300.567 19.3156 299.852 19.5097 299.226 19.8824C298.61 20.243 298.093 20.7505 297.721 21.3596C297.345 21.9722 297.15 22.6786 297.158 23.3972C297.153 24.1251 297.347 24.8405 297.721 25.4652C298.082 26.0831 298.602 26.5931 299.226 26.9424C299.858 27.2967 300.57 27.4801 301.294 27.4742C302.009 27.4823 302.713 27.2986 303.332 26.9424C303.94 26.5903 304.44 26.0797 304.781 25.4652C305.135 24.8339 305.318 24.1211 305.312 23.3972C305.321 22.6827 305.137 21.9789 304.781 21.3596C304.429 20.7535 303.931 20.2455 303.332 19.8824Z" fill="#EFB4ED"/>
<path d="M298.162 62.9858H304.189V32.2605L298.162 33.1468V62.9858Z" fill="#EFB4ED"/>
<path d="M332.078 49.3967C331.473 48.755 330.776 48.207 330.01 47.7708C329.216 47.3171 328.386 46.9316 327.527 46.6185C326.898 46.4216 326.277 46.2148 325.667 45.9981C325.056 45.7815 324.446 45.5845 323.834 45.4073C323.224 45.23 322.633 45.0428 322.062 44.8459C321.526 44.6638 321.003 44.4464 320.497 44.195C320.011 43.937 319.546 43.6406 319.107 43.3087C318.702 43.0036 318.361 42.6218 318.104 42.1851C317.843 41.7372 317.71 41.2262 317.719 40.7079C317.703 40.1385 317.847 39.5761 318.133 39.0839C318.441 38.5997 318.869 38.2029 319.374 37.9317C319.992 37.5921 320.66 37.3525 321.354 37.2217C322.22 37.0559 323.101 36.977 323.983 36.9863C324.415 36.9863 324.889 37.0071 325.401 37.0455C325.913 37.0839 326.474 37.1538 327.085 37.2522C327.697 37.3507 328.305 37.4788 328.916 37.6354C329.526 37.7919 330.147 37.9711 330.778 38.1671C331.362 38.3475 331.934 38.5646 332.491 38.8171L332.905 34.032C332.156 33.7168 331.417 33.4408 330.689 33.2038C329.962 32.9685 329.222 32.7711 328.474 32.6129C327.743 32.4579 327.003 32.3494 326.258 32.2879C325.528 32.2288 324.81 32.1993 324.101 32.1993C322.469 32.1826 320.841 32.3712 319.256 32.7606C317.9 33.0899 316.611 33.6495 315.445 34.4151C314.387 35.1142 313.523 36.0695 312.934 37.1921C312.316 38.4289 312.012 39.7986 312.047 41.1806C312.029 42.176 312.19 43.1665 312.521 44.1054C312.801 44.8932 313.222 45.6239 313.762 46.2621C314.287 46.865 314.894 47.3919 315.564 47.8279C316.262 48.2859 317.004 48.6718 317.78 48.98C318.212 49.1376 318.665 49.2948 319.139 49.4517C319.613 49.6086 320.076 49.7564 320.527 49.8949C320.979 50.0341 321.422 50.172 321.856 50.3086C322.29 50.4452 322.713 50.583 323.126 50.7221C323.54 50.8607 323.944 50.989 324.339 51.1072C324.867 51.2941 325.381 51.521 325.875 51.7858C326.308 52.0156 326.715 52.2933 327.086 52.6139C327.413 52.8997 327.675 53.2524 327.853 53.648C328.034 54.0568 328.125 54.4998 328.12 54.9469C328.141 55.3839 328.064 55.8202 327.896 56.2239C327.727 56.6277 327.471 56.9887 327.145 57.2809C326.413 57.8923 325.539 58.3093 324.603 58.4931C323.508 58.7347 322.388 58.8533 321.266 58.8466C320.564 58.8421 319.864 58.7932 319.168 58.7C318.4 58.6015 317.593 58.4636 316.746 58.2863C315.899 58.1091 315.032 57.8924 314.145 57.6363C313.26 57.3803 312.364 57.0947 311.457 56.7796L311.694 61.8019C312.717 62.1571 313.653 62.4427 314.5 62.6587C315.348 62.8747 316.156 63.0622 316.923 63.2211C317.663 63.3746 318.414 63.4734 319.168 63.5166C319.896 63.5573 320.635 63.5772 321.384 63.5765C323.032 63.5852 324.676 63.4165 326.287 63.0733C327.707 62.7856 329.066 62.2559 330.306 61.5075C331.424 60.8252 332.349 59.8699 332.995 58.7315C333.671 57.4809 334.007 56.0747 333.969 54.6535C333.993 53.617 333.823 52.585 333.467 51.6115C333.149 50.7914 332.678 50.0396 332.078 49.3967Z" fill="#EFB4ED"/>
<path d="M359.322 62.9858H367.122L352.789 46.8352L366.826 32.8513H359.44L349.329 43.9597H347.15V18.375L341.123 19.2612V62.9858H347.15V48.5095H347.249L359.322 62.9858Z" fill="#EFB4ED"/>
</svg>

<svg xmlns="http://www.w3.org/2000/svg" viewBox="0 0 388 84"><path fill="#6B046A" d="M0 0h388v84H0z"/><path fill="#fff" d="M20 63V21.004h13.78V63H20Zm32.528-35.312L60.453 63h-15.08l-9.464-41.996h8.459a7.965 7.965 0 0 1 5.293 1.922 8.31 8.31 0 0 1 2.867 4.762ZM62.523 63V21.004h13.78V63h-13.78Zm24.189-26.026a8.213 8.213 0 0 1-4.228-1.124 8.336 8.336 0 0 1-3.046-3.046 8.206 8.206 0 0 1-1.125-4.229 8.056 8.056 0 0 1 1.125-4.2 8.437 8.437 0 0 1 3.046-3.016 8.233 8.233 0 0 1 4.228-1.124 8.083 8.083 0 0 1 4.199 1.124 8.504 8.504 0 0 1 3.016 3.016 8.075 8.075 0 0 1 1.125 4.2 8.226 8.226 0 0 1-1.125 4.23 8.4 8.4 0 0 1-3.016 3.045 8.059 8.059 0 0 1-4.201 1.124h.002ZM97.18 63V21.004h13.781V63H97.181Zm31.227-19.046c.039.04.334.524.887 1.449.553.925 1.272 2.108 2.159 3.549a1143.28 1143.28 0 0 1 5.589 9.168A854.89 854.89 0 0 0 140 63h-15.141c-.947-1.538-1.804-2.928-2.573-4.17a388.795 388.795 0 0 1-2.453-4.022 355.984 355.984 0 0 0-2.574-4.2 210.645 210.645 0 0 1-2.188-3.578 62.13 62.13 0 0 0-1.272-2.07 6.127 6.127 0 0 1-1.005-2.958 5.745 5.745 0 0 1 .946-2.84c.236-.394.67-1.094 1.301-2.1.631-1.006 1.37-2.198 2.218-3.578.847-1.38 1.706-2.79 2.574-4.23.869-1.439 1.686-2.79 2.453-4.052.77-1.26 1.628-2.66 2.573-4.2H140l-11.711 19.106a3.773 3.773 0 0 0-.592 1.894c.039.706.286 1.385.709 1.952h.002Z"/><path fill="#EFB4ED" d="M187.848 21.035h-7.386L164.41 39.529h-2.206V21.035H156v41.952h6.204V44.02h.209l17.459 19.026 8.45-.06-20.031-20.799 19.557-21.152ZM202.354 58.643a5.207 5.207 0 0 1-.621.03 3.17 3.17 0 0 1-1.299-.237 2.113 2.113 0 0 1-.886-.739 3.214 3.214 0 0 1-.502-1.27 9.852 9.852 0 0 1-.148-1.83V18.375l-6.027.886v37.993a8.027 8.027 0 0 0 .473 2.925c.283.761.75 1.441 1.359 1.98.607.52 1.324.893 2.098 1.093a10.16 10.16 0 0 0 2.629.325c.474 0 .926-.02 1.359-.06a13.777 13.777 0 0 0 2.305-.413l.59-4.67c-.236.042-.472.081-.709.12-.236.037-.443.067-.621.088ZM235.295 59.264a2.69 2.69 0 0 1-2.304-.946 5.073 5.073 0 0 1-.65-3.13l.118-12.173a14.201 14.201 0 0 0-.473-3.782 9.284 9.284 0 0 0-1.418-3.013 7.99 7.99 0 0 0-2.452-2.186 12.498 12.498 0 0 0-3.575-1.359 21.016 21.016 0 0 0-4.668-.473c-1.244 0-2.487.079-3.721.237a25.645 25.645 0 0 0-3.458.678 28.926 28.926 0 0 0-3.102 1.035l-.709 5.023c.985-.356 1.92-.652 2.807-.887a37.969 37.969 0 0 1 2.57-.59c.81-.156 1.629-.264 2.452-.326a32.77 32.77 0 0 1 2.394-.088 13.2 13.2 0 0 1 3.574.413c.852.213 1.635.64 2.275 1.241.57.584.977 1.307 1.181 2.097.253.974.372 1.978.356 2.985l-.007 1.483-6.907.467c-2.362.066-4.69.587-6.854 1.536a9.815 9.815 0 0 0-4.048 3.28 7.627 7.627 0 0 0-1.329 4.342 8.634 8.634 0 0 0 1.034 4.165 7.772 7.772 0 0 0 3.131 3.103 10.532 10.532 0 0 0 5.23 1.182c1.701.039 3.395-.242 4.993-.829a11.525 11.525 0 0 0 3.722-2.363 16.11 16.11 0 0 0 1.162-1.239c.115.612.331 1.2.64 1.741a4.768 4.768 0 0 0 2.305 2.01c1.07.429 2.215.64 3.367.619.355 0 .7-.01 1.034-.03.329-.019.656-.068.975-.147.316-.08.6-.148.857-.207.231-.052.458-.121.68-.206l.65-3.96a5.18 5.18 0 0 1-1.005.237c-.274.037-.55.057-.827.06Zm-9.838-2.659c-.641.506-1.334.942-2.068 1.3a9.278 9.278 0 0 1-2.305.768 13.07 13.07 0 0 1-2.51.237 6.664 6.664 0 0 1-2.807-.532 3.863 3.863 0 0 1-1.743-1.508 4.41 4.41 0 0 1-.591-2.334 4.474 4.474 0 0 1 .768-2.776 4.513 4.513 0 0 1 2.481-1.477 17.972 17.972 0 0 1 4.609-.473h5.174l-.026 5.865c-.3.338-.628.649-.982.93ZM261.41 49.397a8.864 8.864 0 0 0-2.067-1.626 16.225 16.225 0 0 0-2.482-1.153 51.09 51.09 0 0 1-1.861-.62 33.217 33.217 0 0 0-1.832-.59 36.647 36.647 0 0 1-1.773-.562c-.536-.182-1.058-.4-1.565-.651a10.39 10.39 0 0 1-1.389-.886 3.876 3.876 0 0 1-1.005-1.124 2.856 2.856 0 0 1-.385-1.477 3.063 3.063 0 0 1 .416-1.624c.308-.484.736-.88 1.241-1.152a6.678 6.678 0 0 1 1.979-.71 13.243 13.243 0 0 1 2.63-.236c.432 0 .906.021 1.417.06a20.25 20.25 0 0 1 1.685.206c.611.099 1.219.227 1.831.383.613.157 1.231.336 1.862.532.583.18 1.155.398 1.711.65l.416-4.785a28.353 28.353 0 0 0-2.216-.828 22.117 22.117 0 0 0-2.216-.591 17.722 17.722 0 0 0-2.216-.325c-.73-.06-1.447-.089-2.157-.089a19.488 19.488 0 0 0-4.845.562c-1.356.33-2.644.889-3.811 1.654a7.522 7.522 0 0 0-2.512 2.777 8.468 8.468 0 0 0-.886 3.989 8.343 8.343 0 0 0 .473 2.924 6.97 6.97 0 0 0 1.241 2.157 8.648 8.648 0 0 0 1.802 1.566c.698.458 1.44.844 2.216 1.152.432.158.885.315 1.359.472.473.158.935.306 1.389.443.454.137.894.277 1.329.414.436.137.856.276 1.27.413.414.137.817.267 1.211.385.529.187 1.043.414 1.537.679.434.23.84.508 1.212.828.326.286.588.639.768 1.034.179.41.27.852.265 1.299a2.956 2.956 0 0 1-.975 2.334 5.658 5.658 0 0 1-2.541 1.212c-1.096.242-2.215.36-3.337.354a16.598 16.598 0 0 1-2.099-.147 31.28 31.28 0 0 1-2.422-.414 36.056 36.056 0 0 1-2.6-.65 52.404 52.404 0 0 1-2.688-.857l.235 5.023c1.024.355 1.96.64 2.807.857.848.216 1.656.403 2.424.562.739.154 1.49.252 2.244.296.729.04 1.467.06 2.216.06 1.648.008 3.293-.16 4.905-.504a12.637 12.637 0 0 0 4.018-1.566 7.712 7.712 0 0 0 2.688-2.776 8.108 8.108 0 0 0 .973-4.078 8.277 8.277 0 0 0-.501-3.041 6.909 6.909 0 0 0-1.389-2.215ZM289.122 49.397a8.909 8.909 0 0 0-2.069-1.626 16.08 16.08 0 0 0-2.482-1.153 51.09 51.09 0 0 1-1.861-.62 33.215 33.215 0 0 0-1.832-.59 37.48 37.48 0 0 1-1.773-.562c-.536-.182-1.058-.4-1.565-.651a10.326 10.326 0 0 1-1.389-.886 3.855 3.855 0 0 1-1.003-1.124 2.828 2.828 0 0 1-.386-1.477 3.063 3.063 0 0 1 .415-1.624 3.34 3.34 0 0 1 1.241-1.152 6.68 6.68 0 0 1 1.979-.71 13.248 13.248 0 0 1 2.629-.236 19.164 19.164 0 0 1 3.103.266c.611.099 1.22.227 1.83.383.611.157 1.231.336 1.863.532.584.18 1.156.398 1.712.65l.415-4.785a28.315 28.315 0 0 0-2.216-.828 22.054 22.054 0 0 0-2.216-.591 17.704 17.704 0 0 0-2.216-.325 26.72 26.72 0 0 0-2.156-.089 19.474 19.474 0 0 0-4.845.562c-1.356.329-2.645.889-3.812 1.654a7.529 7.529 0 0 0-2.511 2.777 8.444 8.444 0 0 0-.886 3.989 8.32 8.32 0 0 0 .474 2.924c.28.788.7 1.519 1.24 2.157a8.627 8.627 0 0 0 1.803 1.566c.697.458 1.44.844 2.215 1.152.432.158.885.315 1.359.472.473.158.935.306 1.389.443.454.137.895.277 1.328.414.434.137.857.276 1.271.413.413.137.817.267 1.212.385a11.01 11.01 0 0 1 1.535.679c.434.23.841.507 1.213.828.326.286.588.639.767 1.034.181.409.272.852.267 1.299a2.943 2.943 0 0 1-.976 2.334 5.661 5.661 0 0 1-2.541 1.212c-1.096.242-2.215.36-3.337.354a16.588 16.588 0 0 1-2.098-.147 31.271 31.271 0 0 1-2.423-.414 35.821 35.821 0 0 1-2.6-.65 52.817 52.817 0 0 1-2.688-.856l.237 5.022c1.022.355 1.958.64 2.806.857.848.216 1.656.403 2.423.562.74.154 1.49.252 2.245.296.728.04 1.467.06 2.216.06 1.647.008 3.291-.16 4.903-.504a12.625 12.625 0 0 0 4.018-1.566 7.703 7.703 0 0 0 2.689-2.776 8.099 8.099 0 0 0 .974-4.078 8.256 8.256 0 0 0-.502-3.041 6.9 6.9 0 0 0-1.388-2.215ZM303.332 19.882a3.826 3.826 0 0 0-2.038-.56 3.983 3.983 0 0 0-2.068.56 4.322 4.322 0 0 0-1.505 1.478 3.814 3.814 0 0 0-.563 2.037 3.972 3.972 0 0 0 .563 2.068 4.014 4.014 0 0 0 1.505 1.477 4.158 4.158 0 0 0 2.068.532 3.996 3.996 0 0 0 2.038-.532 3.883 3.883 0 0 0 1.449-1.477 4.158 4.158 0 0 0 .531-2.068 3.989 3.989 0 0 0-.531-2.037 4.184 4.184 0 0 0-1.449-1.478ZM298.162 62.986h6.027V32.26l-6.027.886v29.839ZM332.078 49.397a8.885 8.885 0 0 0-2.068-1.626 16.154 16.154 0 0 0-2.483-1.153 51.688 51.688 0 0 1-1.86-.62 32.707 32.707 0 0 0-1.833-.59 37.806 37.806 0 0 1-1.772-.562c-.536-.182-1.059-.4-1.565-.651a10.36 10.36 0 0 1-1.39-.886 3.855 3.855 0 0 1-1.003-1.124 2.836 2.836 0 0 1-.385-1.477 3.062 3.062 0 0 1 .414-1.624 3.349 3.349 0 0 1 1.241-1.152 6.68 6.68 0 0 1 1.98-.71 13.241 13.241 0 0 1 2.629-.236 19.138 19.138 0 0 1 3.102.266c.612.099 1.22.227 1.831.383.61.157 1.231.336 1.862.532.584.18 1.156.398 1.713.65l.414-4.785a28.315 28.315 0 0 0-2.216-.828 21.938 21.938 0 0 0-2.215-.591 17.704 17.704 0 0 0-2.216-.325c-.73-.06-1.448-.089-2.157-.089a19.474 19.474 0 0 0-4.845.562 12.18 12.18 0 0 0-3.811 1.654 7.512 7.512 0 0 0-2.511 2.777 8.444 8.444 0 0 0-.887 3.989 8.344 8.344 0 0 0 .474 2.924c.28.788.701 1.519 1.241 2.157a8.634 8.634 0 0 0 1.802 1.566c.698.458 1.44.844 2.216 1.152.432.158.885.315 1.359.472.474.157.937.304 1.388.443.452.14.895.277 1.329.414.434.136.857.274 1.27.413.414.139.818.267 1.213.385.528.187 1.042.414 1.536.679.433.23.84.507 1.211.828a3.02 3.02 0 0 1 1.034 2.333 2.956 2.956 0 0 1-.975 2.334 5.669 5.669 0 0 1-2.542 1.212c-1.095.242-2.215.36-3.337.354a16.6 16.6 0 0 1-2.098-.147 31.25 31.25 0 0 1-2.422-.414 35.844 35.844 0 0 1-2.601-.65 53.462 53.462 0 0 1-2.688-.856l.237 5.022a35.02 35.02 0 0 0 2.806.857c.848.216 1.656.403 2.423.562.74.154 1.491.252 2.245.296.728.04 1.467.06 2.216.06 1.648.008 3.292-.16 4.903-.504a12.63 12.63 0 0 0 4.019-1.566 7.709 7.709 0 0 0 2.689-2.776 8.12 8.12 0 0 0 .974-4.078 8.298 8.298 0 0 0-.502-3.041 6.903 6.903 0 0 0-1.389-2.215ZM359.322 62.986h7.8l-14.333-16.15 14.037-13.985h-7.386L349.329 43.96h-2.179V18.375l-6.027.886v43.725h6.027V48.51h.099l12.073 14.476Z"/></svg>
